X: 10052
T: Dick Sherlock's
R: reel
M: 4/4
K: Dmajor
dB|AFF2 BFAF|DEFA BABd|eBB2 egfe|dfed BedB|	
AFF2 BFAF|DEFA BABd|egfg efdB|AFGE D2:|
|:A2|d3e fefg|afbf afdf|eBB2 gBB2|fedf edBd|
AFF2 ABdf|aba^g afdf|=g2fg efdB|AFGE D2:|

